X: 729
T: Chanchu hanjian
L: 1/8
M: 2/4
K: F
c2c2 [I:setbarnb 1]| 
d> f d c | 
B2A c | 
G3A | 
c2B A | 
G> A G3/ D/ | 
F4 | 
c2B A | 
G3A | 
F2E D | 
C3D | 
F2E D | 
C> D C G, | 
C4 |]

@@@ Tune index: 9603
